X: 1
T: A Jig for Mrs. Dunn
T: 8 x 32J 2C (Helensburgh Children's Class, SCD for Children)
P: Tracy's Jig
R: jig
C: Muriel A. Johnstone
C: from "Originally Ours" colln.
M: 6/8
K: G
L: 1/8
|: D|"G"G3 "C"g2 e|"G"dcB BAG|"G"D2 G B,2 D|"D"CA,A, A,2 D|"G"G3 "C"g2 e|"G"dcB BAG|"G"D2 G "D"CB,A,| "G"B,G,G, G,2 :|
|: d|"G"g2 g "D"b2 a|"Em"g2 g "G"b2 g|"G"d2 g B2 d|"D"cAA A2 B|"G"G2 G "D"B2 A|"Em"G2 G "C"g2 e|"G"dcB "D"AGA| "G"BGG G2 :|
